app/images/companionfare.svg

<?xml version="1.0" encoding="UTF-8"?>
<svg width="74px" height="59px" viewBox="0 0 74 59" version="1.1" xmlns="http://www.w3.org/2000/svg" xmlns:xlink="http://www.w3.org/1999/xlink">
    <title>icon/companionfare</title>
    <defs>
        <path d="M73.9100701,42.1861525 C73.7332455,42.5852626 73.3364684,42.8243018 72.9224401,42.8243018 C72.7779615,42.8243018 72.6313264,42.7965562 72.4911606,42.7346621 C69.5519908,41.462632 66.6279158,39.8299088 63.8030351,38.2526769 C62.4703815,37.5078136 61.154979,36.7736218 59.8676097,36.0949211 C59.7748846,36.0458327 59.6886287,35.9818044 59.6131548,35.9092389 C59.494553,35.7897193 59.3759511,35.6894082 59.2595056,35.5890971 C58.8368517,35.2241354 58.3106907,34.7695341 58.0174207,33.9051512 C57.4265678,31.5851903 59.0072071,29.9012444 60.1587234,28.6718999 C60.4174911,28.3965779 60.6633204,28.1340616 60.8681782,27.8800825 L61.545287,26.9580741 C62.5825142,25.5537187 63.563675,24.2261974 64.1717791,22.6233541 C65.7998592,18.0517291 65.5303095,13.1620967 63.427822,9.22862104 C61.1312587,4.97073506 58.2826576,2.13427869 51.8328727,2.13427869 C45.3830878,2.13427869 42.5323304,4.97073506 40.2379234,9.2328896 C38.1419051,12.9187889 37.8637298,18.0495948 39.5004355,22.6425626 C40.121478,24.2816886 41.1673307,25.946426 42.7803161,27.8630082 C42.980861,28.1105846 43.20297,28.3560266 43.4337045,28.6164086 C44.6261923,29.9567356 46.2607416,31.7879468 45.6591067,33.8603314 C45.3183959,34.876248 44.6348179,35.6808711 43.7701025,36.1077268 C40.1344164,37.9069237 37.1133035,39.5439155 36.3413132,39.9622341 C35.629702,41.6483143 34.6550103,42.9993127 33.6134704,44.4079366 L32.9255796,45.3427507 C32.6538735,45.6799667 32.3713854,45.9830343 32.0781154,46.2989075 C30.9438503,47.5090436 30.161078,48.4459919 30.4241585,49.4832513 C30.5017888,49.703082 30.6505802,49.8418102 31.0085422,50.1512806 C31.1228313,50.2473231 31.2392767,50.3476342 31.3557222,50.4564824 C32.6172147,51.1245116 33.9024276,51.8437636 35.2070481,52.5736869 C37.9823317,54.1231732 40.8546531,55.7260165 43.6903158,56.955361 C44.2358844,57.192266 44.4838701,57.8218782 44.2466664,58.3618507 C44.0698418,58.7630951 43.675221,59 43.2590363,59 C43.1145577,59 42.9679226,58.9722544 42.8277568,58.9103603 C39.888587,57.6383302 36.9688248,56.0077413 34.1482569,54.4305093 C32.8112905,53.6856461 31.4937316,52.9493199 30.2042059,52.2706193 C30.1093244,52.2193966 30.0230685,52.1553683 29.949751,52.0806685 C29.8311492,51.9632832 29.7103909,51.8608378 29.5939454,51.7605267 C29.1712915,51.395565 28.647287,50.943098 28.3540169,50.0808494 C27.7674768,47.7630227 29.3438033,46.0769426 30.4953196,44.847598 C30.7519309,44.5722761 31.002073,44.3097598 31.2047744,44.0557806 L31.8732576,43.1444436 C32.9147976,41.737954 33.8981148,40.4061641 34.5105317,38.7990522 C36.1386118,34.2295616 35.8690621,29.3399291 33.7665746,25.4043192 C31.2306511,20.6982347 27.3275717,18.3099768 22.1694689,18.3099768 C17.0113661,18.3099768 13.1104431,20.6982347 10.5745196,25.4085878 C8.47634489,29.0966213 8.20032601,34.2274273 9.8391881,38.8182607 C10.6543063,40.9717479 12.1034055,42.8307047 13.1212251,44.0408407 C13.3196136,44.2841485 13.5395662,44.5295905 13.7681443,44.7899725 C14.9627885,46.1281652 16.5973378,47.9636449 15.9978593,50.0360295 C15.6593049,51.0498119 14.9757269,51.854435 14.1110115,52.2812907 C11.2020313,53.7219288 8.28011272,55.2906236 5.45738841,56.8080958 C4.14414234,57.5124078 2.85246025,58.2060483 1.58665493,58.8762118 C1.06049394,59.1472652 0.407105504,58.9551801 0.126773832,58.4365504 C-0.153557841,57.9157864 0.0469871246,57.2691 0.570991713,56.9916438 C1.83248424,56.3257488 3.12200994,55.6342425 4.42878681,54.9320648 C7.2687623,53.4060556 10.2057757,51.8288236 13.1449454,50.3732456 C13.3131444,50.2900087 13.7293292,50.0274924 13.9363433,49.4064173 C14.1994238,48.4993489 13.0630023,47.2251845 12.1508462,46.2007307 C11.8963913,45.9147374 11.6548748,45.643684 11.450017,45.3897048 C10.3437851,44.0771234 8.75020737,42.0239473 7.81433086,39.5481841 C5.96629822,34.3725582 6.30053983,28.5694545 8.68335905,24.3819997 C11.5707753,19.0206917 16.2372194,16.1756982 22.1694689,16.1756982 C28.1017184,16.1756982 32.7703189,19.0206917 35.6706736,24.4033425 C37.6782796,28.159673 38.2001278,32.6587325 37.2254361,37.0596151 C38.6314073,36.3168861 40.6023546,35.2881638 42.8061928,34.1975474 C42.9743918,34.1143105 43.3905766,33.8539285 43.5997471,33.2285849 C43.8606712,32.3236507 42.7285625,31.0516206 41.8164064,30.0293011 C41.5597951,29.7411735 41.3182786,29.4679858 41.1112644,29.2140067 C39.3516441,27.1245478 38.1915022,25.2634568 37.4755783,23.3746202 C35.629702,18.1968601 35.9661,12.3937563 38.3467628,8.20630155 C40.5268807,4.15970916 43.8455764,0 51.8328727,0 C59.820169,0 63.1388647,4.15970916 65.3297646,8.22764434 C67.7168966,12.6904211 68.0317306,18.2011286 66.1987927,23.3532774 C65.478556,25.2506511 64.4132956,26.6934235 63.2833433,28.2194328 L62.5889834,29.1670525 C62.3172773,29.5042686 62.0347892,29.8073361 61.7393627,30.1232094 C60.6050977,31.3333454 59.8244818,32.2702937 60.0875623,33.3075532 C60.1651926,33.5295182 60.313984,33.6682463 60.6762588,33.979851 C60.7883915,34.0758935 60.9026805,34.1740703 61.0169696,34.2807843 C62.2741493,34.9488135 63.5615186,35.6659311 64.8639827,36.3937202 C67.6414227,37.9453408 70.5159005,39.5503183 73.3537196,40.7796629 C73.8992882,41.0165678 74.1472739,41.64618 73.9100701,42.1861525" id="path-1"></path>
    </defs>
    <g id="Design" stroke="none" stroke-width="1" fill="none" fill-rule="evenodd">
        <g id="ASA35281_CAD_LP_DT" transform="translate(-365.000000, -1528.000000)">
            <g id="Card-benefits" transform="translate(0.000000, 1323.000000)">
                <g id="Companion-Fare" transform="translate(272.000000, 205.000000)">
                    <g id="icon/companionfare" transform="translate(93.000000, 0.000000)">
                        <mask id="mask-2" fill="white">
                            <use xlink:href="#path-1"></use>
                        </mask>
                        <use id="Fill-1" fill="#000000" xlink:href="#path-1"></use>
                        <g id="Group" mask="url(#mask-2)">
                            <g transform="translate(-94.000000, -84.000000)" id="swatch/212223">
                                <rect id="Rectangle" fill="#FFFFFF" x="0" y="0" width="364" height="279"></rect>
                            </g>
                        </g>
                    </g>
                </g>
            </g>
        </g>
    </g>
</svg>

<?xml version="1.0" encoding="utf-8"?>
<!-- Generator: Adobe Illustrator 24.1.0, SVG Export Plug-In . SVG Version: 6.00 Build 0)  -->
<svg version="1.1" id="Layer_1" xmlns="http://www.w3.org/2000/svg" xmlns:xlink="http://www.w3.org/1999/xlink" x="0px" y="0px"
	 viewBox="0 0 74 59" style="enable-background:new 0 0 74 59;" xml:space="preserve">
<style type="text/css">
	.st0{fill-rule:evenodd;clip-rule:evenodd;fill:#FFFFFF;}
</style>
<path id="path-1" class="st0" d="M73.9,42.2c-0.2,0.4-0.6,0.6-1,0.6h-0.4c-2.9-1.2-5.9-2.9-8.7-4.4l-3.9-2.2L59.6,36l-0.3-0.3
	c-0.6-0.4-1.1-1.1-1.3-1.8c-0.6-2.3,1-4,2.2-5.2l0.7-0.8l0.6-0.9c1.1-1.3,2-2.8,2.7-4.4c1.6-4.4,1.3-9.2-0.8-13.4
	C61.1,5,58.3,2.1,51.8,2.1S42.5,5,40.2,9.2s-2.3,8.8-0.7,13.4c0.8,1.9,1.9,3.7,3.3,5.3l0.6,0.7c1.2,1.4,2.9,3.2,2.3,5.3
	c-0.4,0.9-1,1.7-1.9,2.2c-3.7,1.8-6.7,3.4-7.5,3.9c-0.7,1.6-1.6,3.1-2.7,4.4l-0.7,0.9c-0.2,0.4-0.5,0.7-0.8,1
	c-1.2,1.2-1.9,2.1-1.7,3.2l0.6,0.7l0.4,0.3l3.8,2.1c2.8,1.5,5.7,3.1,8.5,4.4c0.5,0.2,0.8,0.8,0.5,1.3c0,0,0,0.1,0,0.1
	c-0.1,0.4-0.5,0.6-0.9,0.6h-0.5c-2.9-1.3-5.8-2.9-8.7-4.5c-1.3-0.7-2.6-1.5-3.9-2.1l-0.3-0.2l-0.3-0.3c-0.6-0.4-1-1-1.2-1.7
	c-0.6-2.3,0.9-4,2.1-5.3c0.3-0.2,0.5-0.4,0.7-0.7l0.7-1c1.1-1.3,1.9-2.8,2.6-4.3c1.6-4.4,1.4-9.2-0.7-13.4
	c-2.6-4.7-6.5-7.1-11.6-7.1c-4.9-0.2-9.5,2.6-11.6,7.1c-2.1,4.2-2.4,9-0.8,13.4c0.8,1.9,2,3.6,3.3,5.1l0.7,0.8
	C15,46.1,16.6,48,16,50c-0.3,1-1,1.8-1.9,2.3c-2.9,1.4-5.8,3-8.6,4.5l-3.9,2.1c-0.6,0.2-1.2,0-1.5-0.5C-0.2,57.9,0,57.3,0.5,57
	c0,0,0.1,0,0.1,0l3.8-2.1c2.9-1.5,5.8-3.1,8.7-4.5c0.4-0.2,0.7-0.6,0.8-1c0.3-0.9-0.8-2.2-1.7-3.2l-0.7-0.8
	c-1.6-1.7-2.8-3.7-3.7-5.9C6,34.4,6.3,28.6,8.7,24.4s7.5-8.2,13.5-8.2c5.7-0.1,11,3.1,13.5,8.2c2,3.9,2.5,8.4,1.5,12.7l5.6-2.9
	c0.4-0.2,0.7-0.6,0.8-1c0.3-0.9-0.9-2.1-1.8-3.2l-0.7-0.8c-1.5-1.7-2.7-3.7-3.6-5.8c-1.9-5-1.6-10.5,0.8-15.2
	c2.2-4,5.5-8.2,13.5-8.2s11.3,4.2,13.5,8.2c2.4,4.7,2.7,10.2,0.9,15.2c-0.7,1.7-1.7,3.4-2.9,4.8l-0.7,1l-0.9,0.9
	c-1.1,1.2-1.9,2.2-1.6,3.2c0.1,0.3,0.3,0.5,0.6,0.7l0.3,0.3l3.9,2.1c2.7,1.6,5.6,3.1,8.5,4.4C73.9,41.1,74.1,41.7,73.9,42.2"/>
</svg>
